; generated by Slic3r 1.33.8 on 2018-06-25 at 21:42:58

; external perimeters extrusion width = 0.60mm
; perimeters extrusion width = 0.43mm
; infill extrusion width = 0.70mm
; solid infill extrusion width = 0.70mm
; top infill extrusion width = 0.43mm

M107
M115 U3.0.12 ; tell printer latest fw version
M83  ; extruder relative mode
M104 S215 ; set extruder temp
M140 S55 ; set bed temp
M190 S55 ; wait for bed temp
M109 S215 ; wait for extruder temp
G28 W ; home all without mesh bed level
G80 ; mesh bed leveling
G1 Y-3.0 F1000.0 ; go outside pritn area
G1 X60.0 E9.0  F1000.0 ; intro line
G1 X100.0 E12.5  F1000.0 ; intro line
G21 ; set units to millimeters
G90 ; use absolute coordinates
M83 ; use relative distances for extrusion
G1 E-0.80000 F2100.00000
G1 Z0.200 F7200.000
G1 X39.801 Y47.631 F7200.000
G1 E0.80000 F2100.00000
M204 S1000
G1 F2100
G1 X210.004 Y47.623 E5.33659
G1 X210.349 Y47.649 E0.01086
G1 X210.687 Y47.724 E0.01086
G1 X211.007 Y47.847 E0.01074
G1 X211.309 Y48.016 E0.01086
G1 X211.541 Y48.190 E0.00907
G1 X211.752 Y48.393 E0.00919
G1 X211.936 Y48.621 E0.00919
G1 X212.089 Y48.866 E0.00907
G1 X212.212 Y49.128 E0.00907
G1 X212.302 Y49.407 E0.00919
G1 X212.357 Y49.691 E0.00907
G1 X212.377 Y49.984 E0.00919
G1 X212.377 Y160.008 E3.44972
G1 X212.351 Y160.349 E0.01074
G1 X212.276 Y160.687 E0.01086
G1 X212.153 Y161.007 E0.01074
G1 X211.984 Y161.309 E0.01086
G1 X211.810 Y161.541 E0.00907
G1 X211.607 Y161.752 E0.00919
G1 X211.379 Y161.936 E0.00919
G1 X211.130 Y162.091 E0.00919
G1 X210.868 Y162.213 E0.00907
G1 X210.589 Y162.303 E0.00919
G1 X210.301 Y162.358 E0.00919
G1 X210.009 Y162.377 E0.00919
G1 X39.996 Y162.377 E5.33062
G1 X39.651 Y162.351 E0.01086
G1 X39.313 Y162.276 E0.01086
G1 X38.993 Y162.153 E0.01074
G1 X38.691 Y161.984 E0.01086
G1 X38.459 Y161.810 E0.00907
G1 X38.251 Y161.610 E0.00907
G1 X38.068 Y161.385 E0.00907
G1 X37.913 Y161.137 E0.00919
G1 X37.790 Y160.875 E0.00907
G1 X37.700 Y160.600 E0.00907
G1 X37.644 Y160.313 E0.00919
G1 X37.623 Y160.024 E0.00907
G1 X37.623 Y49.977 E3.45044
G1 X37.666 Y49.549 E0.01348
G1 X37.787 Y49.133 E0.01360
G1 X37.979 Y48.749 E0.01348
G1 X38.237 Y48.405 E0.01348
G1 X38.553 Y48.114 E0.01348
G1 X38.917 Y47.884 E0.01348
G1 X39.319 Y47.723 E0.01360
G1 X39.741 Y47.637 E0.01351
G1 F5760
G1 X41.936 Y47.637 E-0.76000
G1 E-0.04000 F2100.00000
G1 X203.786 Y152.897 F7200.000
G1 E0.80000 F2100.00000
G1 F840
G1 X206.214 Y152.897 E0.07613
G1 X207.428 Y155.000 E0.07612
G1 X206.214 Y157.103 E0.07612
G1 X203.786 Y157.103 E0.07613
G1 X202.572 Y155.000 E0.07612
G1 X203.756 Y152.949 E0.07424
G1 X204.004 Y153.274 F7200.000
G1 F840
G1 X205.996 Y153.274 E0.06247
G1 X206.992 Y155.000 E0.06247
G1 X205.996 Y156.726 E0.06247
G1 X204.004 Y156.726 E0.06247
G1 X203.008 Y155.000 E0.06247
G1 X203.974 Y153.326 E0.06059
G1 X204.004 Y152.874 F7200.000
G1 F5760
G1 X205.996 Y153.274 E-0.70073
G1 F5760
G1 X206.082 Y153.423 E-0.05927
G1 E-0.04000 F2100.00000
G1 X203.786 Y52.897 F7200.000
G1 E0.80000 F2100.00000
G1 F840
G1 X206.214 Y52.897 E0.07613
G1 X207.428 Y55.000 E0.07612
G1 X206.214 Y57.103 E0.07612
G1 X203.786 Y57.103 E0.07613
G1 X202.572 Y55.000 E0.07612
G1 X203.756 Y52.949 E0.07424
G1 X204.004 Y53.275 F7200.000
G1 F840
G1 X205.996 Y53.275 E0.06247
G1 X206.992 Y55.000 E0.06247
G1 X205.996 Y56.725 E0.06247
G1 X204.004 Y56.725 E0.06247
G1 X203.008 Y55.000 E0.06247
G1 X203.974 Y53.326 E0.06059
G1 X204.004 Y52.875 F7200.000
G1 F5760
G1 X205.996 Y53.275 E-0.70073
G1 F5760
G1 X206.082 Y53.423 E-0.05927
G1 E-0.04000 F2100.00000
G1 X43.786 Y52.897 F7200.000
G1 E0.80000 F2100.00000
G1 F840
G1 X46.214 Y52.897 E0.07612
G1 X47.428 Y55.000 E0.07612
G1 X46.214 Y57.103 E0.07612
G1 X43.786 Y57.103 E0.07612
G1 X42.572 Y55.000 E0.07612
G1 X43.756 Y52.949 E0.07424
G1 X44.004 Y53.275 F7200.000
G1 F840
G1 X45.996 Y53.275 E0.06247
G1 X46.992 Y55.000 E0.06247
G1 X45.996 Y56.725 E0.06247
G1 X44.004 Y56.725 E0.06247
G1 X43.008 Y55.000 E0.06247
G1 X43.974 Y53.326 E0.06059
G1 X44.004 Y52.875 F7200.000
G1 F5760
G1 X45.996 Y53.275 E-0.70073
G1 F5760
G1 X46.082 Y53.423 E-0.05927
G1 E-0.04000 F2100.00000
G1 X43.786 Y152.897 F7200.000
G1 E0.80000 F2100.00000
G1 F840
G1 X46.214 Y152.897 E0.07612
G1 X47.428 Y155.000 E0.07612
G1 X46.214 Y157.103 E0.07612
G1 X43.786 Y157.103 E0.07612
G1 X42.572 Y155.000 E0.07612
G1 X43.756 Y152.949 E0.07424
G1 X44.004 Y153.274 F7200.000
G1 F840
G1 X45.996 Y153.274 E0.06247
G1 X46.992 Y155.000 E0.06247
G1 X45.996 Y156.726 E0.06247
G1 X44.004 Y156.726 E0.06247
G1 X43.008 Y155.000 E0.06247
G1 X43.974 Y153.326 E0.06059
G1 X44.004 Y152.874 F7200.000
G1 F5760
G1 X45.996 Y153.274 E-0.70073
G1 F5760
G1 X46.082 Y153.423 E-0.05927
G1 E-0.04000 F2100.00000
G1 X40.587 Y159.413 F7200.000
G1 E0.80000 F2100.00000
G1 F1680
G1 X40.587 Y50.587 E3.41216
G1 X209.413 Y50.587 E5.29342
G1 X209.413 Y159.413 E3.41216
G1 X40.647 Y159.413 E5.29153
G1 X40.210 Y159.790 F7200.000
G1 F1260
G1 X40.210 Y50.210 E3.43580
G1 X209.790 Y50.210 E5.31706
G1 X209.790 Y159.790 E3.43580
G1 X40.270 Y159.790 E5.31518
G1 X40.341 Y159.412 F7200.000
G1 F5760
G1 X40.269 Y157.596 E-0.76000
G1 E-0.04000 F2100.00000
G1 X41.464 Y159.300 F7200.000
G1 E0.80000 F2100.00000
G1 F2520
G1 X40.870 Y158.706 E0.02639
G1 X40.870 Y158.171 E0.01678
G1 X41.829 Y159.130 E0.04259
G1 X42.363 Y159.130 E0.01678
G1 X40.870 Y157.637 E0.06632
G1 X40.870 Y157.103 E0.01678
G1 X42.897 Y159.130 E0.09006
G1 X43.431 Y159.130 E0.01678
G1 X40.870 Y156.569 E0.11379
G1 X40.870 Y156.034 E0.01678
G1 X43.966 Y159.130 E0.13752
G1 X44.500 Y159.130 E0.01678
G1 X40.870 Y155.500 E0.16125
G1 X40.870 Y154.966 E0.01678
G1 X45.204 Y159.300 E0.19252
G1 F5760
G1 X43.652 Y157.748 E-0.76000
G1 E-0.04000 F2100.00000
G1 X46.432 Y153.048 F7200.000
G1 E0.80000 F2100.00000
G1 F2520
G1 X52.514 Y159.130 E0.27018
G1 X53.048 Y159.130 E0.01678
G1 X40.870 Y146.952 E0.54098
G1 X40.870 Y146.418 E0.01678
G1 X53.582 Y159.130 E0.56471
G1 X54.116 Y159.130 E0.01678
G1 X40.870 Y145.884 E0.58844
G1 X40.870 Y145.349 E0.01678
G1 X54.651 Y159.130 E0.61218
G1 X55.185 Y159.130 E0.01678
G1 X40.870 Y144.815 E0.63591
G1 X40.870 Y144.281 E0.01678
G1 X55.719 Y159.130 E0.65964
G1 X56.253 Y159.130 E0.01678
G1 X40.870 Y143.747 E0.68338
G1 X40.870 Y143.212 E0.01678
G1 X56.788 Y159.130 E0.70711
G1 X57.322 Y159.130 E0.01678
G1 X40.870 Y142.678 E0.73084
G1 X40.870 Y142.144 E0.01678
G1 X57.856 Y159.130 E0.75457
G1 X58.390 Y159.130 E0.01678
G1 X40.870 Y141.610 E0.77831
G1 X40.870 Y141.075 E0.01678
G1 X58.925 Y159.130 E0.80204
G1 X59.459 Y159.130 E0.01678
G1 X40.870 Y140.541 E0.82577
G1 X40.870 Y140.007 E0.01678
G1 X59.993 Y159.130 E0.84950
G1 X60.527 Y159.130 E0.01678
G1 X40.870 Y139.473 E0.87324
G1 X40.870 Y138.938 E0.01678
G1 X61.062 Y159.130 E0.89697
G1 X61.596 Y159.130 E0.01678
G1 X40.870 Y138.404 E0.92070
G1 X40.870 Y137.870 E0.01678
G1 X62.130 Y159.130 E0.94444
G1 X62.664 Y159.130 E0.01678
G1 X40.870 Y137.336 E0.96817
G1 X40.870 Y136.802 E0.01678
G1 X63.198 Y159.130 E0.99190
G1 X63.733 Y159.130 E0.01678
G1 X40.870 Y136.267 E1.01563
G1 X40.870 Y135.733 E0.01678
G1 X64.267 Y159.130 E1.03937
G1 X64.801 Y159.130 E0.01678
G1 X40.870 Y135.199 E1.06310
G1 X40.870 Y134.665 E0.01678
G1 X65.335 Y159.130 E1.08683
G1 X65.870 Y159.130 E0.01678
G1 X40.870 Y134.130 E1.11057
G1 X40.870 Y133.596 E0.01678
G1 X66.404 Y159.130 E1.13430
G1 X66.938 Y159.130 E0.01678
G1 X40.870 Y133.062 E1.15803
G1 X40.870 Y132.528 E0.01678
G1 X67.472 Y159.130 E1.18176
G1 X68.007 Y159.130 E0.01678
G1 X40.870 Y131.993 E1.20550
G1 X40.870 Y131.459 E0.01678
G1 X68.541 Y159.130 E1.22923
G1 X69.075 Y159.130 E0.01678
G1 X40.870 Y130.925 E1.25296
G1 X40.870 Y130.391 E0.01678
G1 X69.609 Y159.130 E1.27670
G1 X70.144 Y159.130 E0.01678
G1 X40.870 Y129.856 E1.30043
G1 X40.870 Y129.322 E0.01678
G1 X70.678 Y159.130 E1.32416
G1 X71.212 Y159.130 E0.01678
G1 X40.870 Y128.788 E1.34789
G1 X40.870 Y128.254 E0.01678
G1 X71.746 Y159.130 E1.37163
G1 X72.281 Y159.130 E0.01678
G1 X40.870 Y127.719 E1.39536
G1 X40.870 Y127.185 E0.01678
G1 X72.815 Y159.130 E1.41909
G1 X73.349 Y159.130 E0.01678
G1 X40.870 Y126.651 E1.44282
G1 X40.870 Y126.117 E0.01678
G1 X73.883 Y159.130 E1.46656
G1 X74.418 Y159.130 E0.01678
G1 X40.870 Y125.582 E1.49029
G1 X40.870 Y125.048 E0.01678
G1 X74.952 Y159.130 E1.51402
G1 X75.486 Y159.130 E0.01678
G1 X40.870 Y124.514 E1.53776
G1 X40.870 Y123.980 E0.01678
G1 X76.020 Y159.130 E1.56149
G1 X76.555 Y159.130 E0.01678
G1 X40.870 Y123.445 E1.58522
G1 X40.870 Y122.911 E0.01678
G1 X77.089 Y159.130 E1.60895
G1 X77.623 Y159.130 E0.01678
G1 X40.870 Y122.377 E1.63269
G1 X40.870 Y121.843 E0.01678
G1 X78.157 Y159.130 E1.65642
G1 X78.692 Y159.130 E0.01678
G1 X40.870 Y121.308 E1.68015
G1 X40.870 Y120.774 E0.01678
G1 X79.226 Y159.130 E1.70389
G1 X79.760 Y159.130 E0.01678
G1 X40.870 Y120.240 E1.72762
G1 X40.870 Y119.706 E0.01678
G1 X80.294 Y159.130 E1.75135
G1 X80.829 Y159.130 E0.01678
G1 X40.870 Y119.171 E1.77508
G1 X40.870 Y118.637 E0.01678
G1 X81.363 Y159.130 E1.79882
G1 X81.897 Y159.130 E0.01678
G1 X40.870 Y118.103 E1.82255
G1 X40.870 Y117.569 E0.01678
G1 X82.431 Y159.130 E1.84628
G1 X82.966 Y159.130 E0.01678
G1 X40.870 Y117.034 E1.87002
G1 X40.870 Y116.500 E0.01678
G1 X83.500 Y159.130 E1.89375
G1 X84.034 Y159.130 E0.01678
G1 X40.870 Y115.966 E1.91748
G1 X40.870 Y115.432 E0.01678
G1 X84.568 Y159.130 E1.94121
G1 X85.103 Y159.130 E0.01678
G1 X40.870 Y114.897 E1.96495
G1 X40.870 Y114.363 E0.01678
G1 X85.637 Y159.130 E1.98868
G1 X86.171 Y159.130 E0.01678
G1 X40.870 Y113.829 E2.01241
G1 X40.870 Y113.295 E0.01678
G1 X86.705 Y159.130 E2.03614
G1 X87.240 Y159.130 E0.01678
G1 X40.870 Y112.760 E2.05988
G1 X40.870 Y112.226 E0.01678
G1 X87.774 Y159.130 E2.08361
G1 X88.308 Y159.130 E0.01678
G1 X40.870 Y111.692 E2.10734
G1 X40.870 Y111.158 E0.01678
G1 X88.842 Y159.130 E2.13108
G1 X89.377 Y159.130 E0.01678
G1 X40.870 Y110.623 E2.15481
G1 X40.870 Y110.089 E0.01678
G1 X89.911 Y159.130 E2.17854
G1 X90.445 Y159.130 E0.01678
G1 X40.870 Y109.555 E2.20227
G1 X40.870 Y109.021 E0.01678
G1 X90.979 Y159.130 E2.22601
G1 X91.514 Y159.130 E0.01678
G1 X40.870 Y108.486 E2.24974
G1 X40.870 Y107.952 E0.01678
G1 X92.048 Y159.130 E2.27347
G1 X92.582 Y159.130 E0.01678
G1 X40.870 Y107.418 E2.29721
G1 X40.870 Y106.884 E0.01678
G1 X93.116 Y159.130 E2.32094
G1 X93.651 Y159.130 E0.01678
G1 X40.870 Y106.349 E2.34467
G1 X40.870 Y105.815 E0.01678
G1 X94.185 Y159.130 E2.36840
G1 X94.719 Y159.130 E0.01678
G1 X40.870 Y105.281 E2.39214
G1 X40.870 Y104.747 E0.01678
G1 X95.253 Y159.130 E2.41587
G1 X95.788 Y159.130 E0.01678
G1 X40.870 Y104.212 E2.43960
G1 X40.870 Y103.678 E0.01678
G1 X96.322 Y159.130 E2.46334
G1 X96.856 Y159.130 E0.01678
G1 X40.870 Y103.144 E2.48707
G1 X40.870 Y102.610 E0.01678
G1 X97.390 Y159.130 E2.51080
G1 X97.925 Y159.130 E0.01678
G1 X40.870 Y102.075 E2.53453
G1 X40.870 Y101.541 E0.01678
G1 X98.459 Y159.130 E2.55827
G1 X98.993 Y159.130 E0.01678
G1 X40.870 Y101.007 E2.58200
G1 X40.870 Y100.473 E0.01678
G1 X99.527 Y159.130 E2.60573
G1 X100.062 Y159.130 E0.01678
G1 X40.870 Y99.938 E2.62946
G1 X40.870 Y99.404 E0.01678
G1 X100.596 Y159.130 E2.65320
G1 X101.130 Y159.130 E0.01678
G1 X40.870 Y98.870 E2.67693
G1 X40.870 Y98.336 E0.01678
G1 X101.664 Y159.130 E2.70066
G1 X102.199 Y159.130 E0.01678
G1 X40.870 Y97.801 E2.72440
G1 X40.870 Y97.267 E0.01678
G1 X102.733 Y159.130 E2.74813
G1 X103.267 Y159.130 E0.01678
G1 X40.870 Y96.733 E2.77186
G1 X40.870 Y96.199 E0.01678
G1 X103.801 Y159.130 E2.79559
G1 X104.336 Y159.130 E0.01678
G1 X40.870 Y95.664 E2.81933
G1 X40.870 Y95.130 E0.01678
G1 X104.870 Y159.130 E2.84306
G1 X105.404 Y159.130 E0.01678
G1 X40.870 Y94.596 E2.86679
G1 X40.870 Y94.062 E0.01678
G1 X105.938 Y159.130 E2.89053
G1 X106.473 Y159.130 E0.01678
G1 X40.870 Y93.527 E2.91426
G1 X40.870 Y92.993 E0.01678
G1 X107.007 Y159.130 E2.93799
G1 X107.541 Y159.130 E0.01678
G1 X40.870 Y92.459 E2.96172
G1 X40.870 Y91.925 E0.01678
G1 X108.075 Y159.130 E2.98546
G1 X108.610 Y159.130 E0.01678
G1 X40.870 Y91.390 E3.00919
G1 X40.870 Y90.856 E0.01678
G1 X109.144 Y159.130 E3.03292
G1 X109.678 Y159.130 E0.01678
G1 X40.870 Y90.322 E3.05666
G1 X40.870 Y89.788 E0.01678
G1 X110.212 Y159.130 E3.08039
G1 X110.747 Y159.130 E0.01678
G1 X40.870 Y89.253 E3.10412
G1 X40.870 Y88.719 E0.01678
G1 X111.281 Y159.130 E3.12785
G1 X111.815 Y159.130 E0.01678
G1 X40.870 Y88.185 E3.15159
G1 X40.870 Y87.651 E0.01678
G1 X112.349 Y159.130 E3.17532
G1 X112.884 Y159.130 E0.01678
G1 X40.870 Y87.116 E3.19905
G1 X40.870 Y86.582 E0.01678
G1 X113.418 Y159.130 E3.22278
G1 X113.952 Y159.130 E0.01678
G1 X40.870 Y86.048 E3.24652
G1 X40.870 Y85.514 E0.01678
G1 X114.486 Y159.130 E3.27025
G1 X115.020 Y159.130 E0.01678
G1 X40.870 Y84.979 E3.29398
G1 X40.870 Y84.445 E0.01678
G1 X115.555 Y159.130 E3.31772
G1 X116.089 Y159.130 E0.01678
G1 X40.870 Y83.911 E3.34145
G1 X40.870 Y83.377 E0.01678
G1 X116.623 Y159.130 E3.36518
G1 X117.157 Y159.130 E0.01678
G1 X40.870 Y82.843 E3.38891
G1 X40.870 Y82.308 E0.01678
G1 X117.692 Y159.130 E3.41265
G1 X118.226 Y159.130 E0.01678
G1 X40.870 Y81.774 E3.43638
G1 X40.870 Y81.240 E0.01678
G1 X118.760 Y159.130 E3.46011
G1 X119.294 Y159.130 E0.01678
G1 X40.870 Y80.706 E3.48385
G1 X40.870 Y80.171 E0.01678
G1 X119.829 Y159.130 E3.50758
G1 X120.363 Y159.130 E0.01678
G1 X40.870 Y79.637 E3.53131
G1 X40.870 Y79.103 E0.01678
G1 X120.897 Y159.130 E3.55504
G1 X121.431 Y159.130 E0.01678
G1 X40.870 Y78.569 E3.57878
G1 X40.870 Y78.034 E0.01678
G1 X121.966 Y159.130 E3.60251
G1 X122.500 Y159.130 E0.01678
G1 X40.870 Y77.500 E3.62624
G1 X40.870 Y76.966 E0.01678
G1 X123.034 Y159.130 E3.64998
G1 X123.568 Y159.130 E0.01678
G1 X40.870 Y76.432 E3.67371
G1 X40.870 Y75.897 E0.01678
G1 X124.103 Y159.130 E3.69744
G1 X124.637 Y159.130 E0.01678
G1 X40.870 Y75.363 E3.72117
G1 X40.870 Y74.829 E0.01678
G1 X125.171 Y159.130 E3.74491
G1 X125.705 Y159.130 E0.01678
G1 X40.870 Y74.295 E3.76864
G1 X40.870 Y73.760 E0.01678
G1 X126.240 Y159.130 E3.79237
G1 X126.774 Y159.130 E0.01678
G1 X40.870 Y73.226 E3.81610
G1 X40.870 Y72.692 E0.01678
G1 X127.308 Y159.130 E3.83984
G1 X127.842 Y159.130 E0.01678
G1 X40.870 Y72.158 E3.86357
G1 X40.870 Y71.623 E0.01678
G1 X128.377 Y159.130 E3.88730
G1 X128.911 Y159.130 E0.01678
G1 X40.870 Y71.089 E3.91104
G1 X40.870 Y70.555 E0.01678
G1 X129.445 Y159.130 E3.93477
G1 X129.979 Y159.130 E0.01678
G1 X40.870 Y70.021 E3.95850
G1 X40.870 Y69.486 E0.01678
G1 X130.514 Y159.130 E3.98223
G1 X131.048 Y159.130 E0.01678
G1 X40.870 Y68.952 E4.00597
G1 X40.870 Y68.418 E0.01678
G1 X131.582 Y159.130 E4.02970
G1 X132.116 Y159.130 E0.01678
G1 X40.870 Y67.884 E4.05343
G1 X40.870 Y67.349 E0.01678
G1 X132.651 Y159.130 E4.07717
G1 X133.185 Y159.130 E0.01678
G1 X40.870 Y66.815 E4.10090
G1 X40.870 Y66.281 E0.01678
G1 X133.719 Y159.130 E4.12463
G1 X134.253 Y159.130 E0.01678
G1 X40.870 Y65.747 E4.14836
G1 X40.870 Y65.212 E0.01678
G1 X134.788 Y159.130 E4.17210
G1 X135.322 Y159.130 E0.01678
G1 X40.870 Y64.678 E4.19583
G1 X40.870 Y64.144 E0.01678
G1 X135.856 Y159.130 E4.21956
G1 X136.390 Y159.130 E0.01678
G1 X40.870 Y63.610 E4.24330
G1 X40.870 Y63.075 E0.01678
G1 X136.925 Y159.130 E4.26703
G1 X137.459 Y159.130 E0.01678
G1 X40.870 Y62.541 E4.29076
G1 X40.870 Y62.007 E0.01678
G1 X137.993 Y159.130 E4.31449
G1 X138.527 Y159.130 E0.01678
G1 X40.870 Y61.473 E4.33823
G1 X40.870 Y60.938 E0.01678
G1 X139.062 Y159.130 E4.36196
G1 X139.596 Y159.130 E0.01678
G1 X40.870 Y60.404 E4.38569
G1 X40.870 Y59.870 E0.01678
G1 X140.130 Y159.130 E4.40942
G1 X140.664 Y159.130 E0.01678
G1 X40.870 Y59.336 E4.43316
G1 X40.870 Y58.801 E0.01678
G1 X141.199 Y159.130 E4.45689
G1 X141.733 Y159.130 E0.01678
G1 X40.870 Y58.267 E4.48062
G1 X40.870 Y57.733 E0.01678
G1 X142.267 Y159.130 E4.50436
G1 X142.801 Y159.130 E0.01678
G1 X40.870 Y57.199 E4.52809
G1 X40.870 Y56.664 E0.01678
G1 X143.336 Y159.130 E4.55182
G1 X143.870 Y159.130 E0.01678
G1 X40.870 Y56.130 E4.57555
G1 X40.870 Y55.596 E0.01678
G1 X144.404 Y159.130 E4.59929
G1 X144.938 Y159.130 E0.01678
G1 X40.870 Y55.062 E4.62302
G1 X40.870 Y54.527 E0.01678
G1 X145.473 Y159.130 E4.64675
G1 X146.007 Y159.130 E0.01678
G1 X44.262 Y57.385 E4.51979
G1 X44.796 Y57.385 E0.01678
G1 X146.541 Y159.130 E4.51979
G1 X147.075 Y159.130 E0.01678
G1 X45.331 Y57.385 E4.51979
