; generated by Slic3r 1.33.8 on 2018-06-25 at 21:45:49

; external perimeters extrusion width = 0.60mm
; perimeters extrusion width = 0.43mm
; infill extrusion width = 0.70mm
; solid infill extrusion width = 0.70mm
; top infill extrusion width = 0.43mm
; support material extrusion width = 0.35mm

M107
M115 U3.0.12 ; tell printer latest fw version
M83  ; extruder relative mode
M104 S215 ; set extruder temp
M140 S55 ; set bed temp
M190 S55 ; wait for bed temp
M109 S215 ; wait for extruder temp
G28 W ; home all without mesh bed level
G80 ; mesh bed leveling
G1 Y-3.0 F1000.0 ; go outside pritn area
G1 X60.0 E9.0  F1000.0 ; intro line
G1 X100.0 E12.5  F1000.0 ; intro line
G21 ; set units to millimeters
G90 ; use absolute coordinates
M83 ; use relative distances for extrusion
G1 E-0.80000 F2100.00000
G1 Z0.200 F7200.000
G1 X39.803 Y47.631 F7200.000
G1 E0.80000 F2100.00000
M204 S1000
G1 F2100
G1 X210.004 Y47.623 E5.33654
G1 X210.342 Y47.648 E0.01062
G1 X210.676 Y47.721 E0.01074
G1 X210.993 Y47.840 E0.01062
G1 X211.290 Y48.003 E0.01062
G1 X214.170 Y50.231 E0.11417
G1 X214.434 Y50.473 E0.01122
G1 X214.699 Y50.811 E0.01348
G1 X214.899 Y51.192 E0.01348
G1 X215.027 Y51.602 E0.01348
G1 X215.078 Y52.029 E0.01348
G1 X215.079 Y159.546 E3.37112
G1 X215.054 Y159.884 E0.01062
G1 X214.981 Y160.215 E0.01062
G1 X214.862 Y160.532 E0.01062
G1 X214.697 Y160.832 E0.01074
G1 X214.452 Y161.147 E0.01253
G1 X214.155 Y161.420 E0.01264
G1 X213.819 Y161.637 E0.01253
G1 X213.449 Y161.795 E0.01264
G1 X213.124 Y161.878 E0.01050
G1 X210.396 Y162.344 E0.08676
G1 X210.017 Y162.377 E0.01193
G1 X39.996 Y162.377 E5.33090
G1 X39.658 Y162.352 E0.01062
G1 X39.324 Y162.279 E0.01074
G1 X39.007 Y162.160 E0.01062
G1 X38.710 Y161.997 E0.01062
G1 X38.388 Y161.747 E0.01276
G1 X38.114 Y161.447 E0.01276
G1 X37.893 Y161.100 E0.01288
G1 X37.736 Y160.725 E0.01276
G1 X37.670 Y160.470 E0.00824
G1 X36.912 Y156.656 E0.12193
G1 X36.869 Y156.244 E0.01300
G1 X36.869 Y53.777 E3.21277
G1 X36.910 Y53.357 E0.01324
G1 X37.671 Y49.526 E0.12247
G1 X37.743 Y49.253 E0.00883
G1 X37.847 Y48.992 E0.00883
G1 X37.992 Y48.728 E0.00943
G1 X38.171 Y48.482 E0.00955
G1 X38.380 Y48.260 E0.00955
G1 X38.616 Y48.067 E0.00955
G1 X38.874 Y47.906 E0.00955
G1 X39.151 Y47.780 E0.00955
G1 X39.442 Y47.689 E0.00955
G1 X39.743 Y47.637 E0.00958
G1 F5760
G1 X41.937 Y47.637 E-0.76000
G1 E-0.04000 F2100.00000
G1 X39.246 Y53.796 F7200.000
G1 E0.80000 F2100.00000
G1 F2100
G1 X39.246 Y56.204 E0.07550
G1 F5760
G1 X39.246 Y54.010 E-0.76000
G1 E-0.04000 F2100.00000
G1 X42.262 Y53.571 F7200.000
G1 E0.80000 F2100.00000
G1 F2100
G1 X42.262 Y56.090 E0.07897
G1 X43.017 Y57.396 E0.04729
G1 X43.017 Y52.604 E0.15024
G1 X43.317 Y52.084 E0.01882
G1 X43.771 Y52.084 E0.01424
G1 X43.771 Y57.916 E0.18283
G1 X44.525 Y57.916 E0.02365
G1 X44.525 Y52.084 E0.18283
G1 X45.279 Y52.084 E0.02365
G1 X45.279 Y57.916 E0.18283
G1 X46.033 Y57.916 E0.02365
G1 X46.033 Y52.084 E0.18283
G1 X46.683 Y52.084 E0.02038
G1 X46.787 Y52.265 E0.00653
G1 X46.787 Y57.735 E0.17152
G1 X47.542 Y56.429 E0.04729
G1 X47.542 Y53.571 E0.08961
G1 X48.296 Y54.877 E0.04729
G1 X48.296 Y55.462 E0.01834
G1 F5760
G1 X48.296 Y54.877 E-0.20255
G1 F5760
G1 X47.542 Y53.571 E-0.52241
G1 F5760
G1 X47.542 Y53.672 E-0.03504
G1 E-0.04000 F2100.00000
G1 X42.262 Y153.571 F7200.000
G1 E0.80000 F2100.00000
G1 F2100
G1 X42.262 Y156.090 E0.07897
G1 X43.017 Y157.396 E0.04729
G1 X43.017 Y152.604 E0.15024
G1 X43.317 Y152.084 E0.01882
G1 X43.771 Y152.084 E0.01424
G1 X43.771 Y157.916 E0.18283
G1 X44.525 Y157.916 E0.02365
G1 X44.525 Y152.084 E0.18283
G1 X45.279 Y152.084 E0.02365
G1 X45.279 Y157.916 E0.18283
G1 X46.033 Y157.916 E0.02365
G1 X46.033 Y152.084 E0.18283
G1 X46.683 Y152.084 E0.02038
G1 X46.787 Y152.265 E0.00653
G1 X46.787 Y157.735 E0.17152
G1 X47.542 Y156.429 E0.04729
G1 X47.542 Y153.571 E0.08961
G1 X48.296 Y154.877 E0.04729
G1 X48.296 Y155.462 E0.01834
G1 F5760
G1 X48.296 Y154.877 E-0.20256
G1 F5760
G1 X47.542 Y153.571 E-0.52241
G1 F5760
G1 X47.542 Y153.672 E-0.03503
G1 E-0.04000 F2100.00000
G1 X39.246 Y156.204 F7200.000
G1 E0.80000 F2100.00000
G1 F2100
G1 X39.246 Y153.796 E0.07550
G1 F5760
G1 X39.246 Y155.990 E-0.76000
G1 E-0.04000 F2100.00000
G1 X202.144 Y153.776 F7200.000
G1 E0.80000 F2100.00000
G1 F2100
G1 X202.144 Y155.885 E0.06612
G1 X202.898 Y157.191 E0.04729
G1 X202.898 Y152.809 E0.13739
G1 X203.317 Y152.084 E0.02623
G1 X203.652 Y152.084 E0.01053
G1 X203.652 Y157.916 E0.18283
G1 X204.407 Y157.916 E0.02365
G1 X204.407 Y152.084 E0.18283
G1 X205.161 Y152.084 E0.02365
G1 X205.161 Y157.916 E0.18283
G1 X205.915 Y157.916 E0.02365
G1 X205.915 Y152.084 E0.18283
G1 X206.669 Y152.084 E0.02365
G1 X206.669 Y157.916 E0.18283
G1 X207.423 Y156.634 E0.04663
G1 X207.423 Y153.366 E0.10246
G1 X208.177 Y154.672 E0.04729
G1 X208.177 Y155.667 E0.03119
G1 F5760
G1 X208.177 Y154.672 E-0.34449
G1 F5760
G1 X207.578 Y153.633 E-0.41551
G1 E-0.04000 F2100.00000
G1 X211.194 Y152.026 F7200.000
G1 E0.80000 F2100.00000
G1 F2100
G1 X211.194 Y159.369 E0.23022
G1 X211.948 Y159.369 E0.02365
G1 X211.948 Y152.196 E0.22490
G1 X212.702 Y152.196 E0.02365
G1 X212.702 Y159.538 E0.23022
G1 F5760
G1 X212.702 Y157.344 E-0.76000
G1 E-0.04000 F2100.00000
G1 X212.702 Y59.443 F7200.000
G1 E0.80000 F2100.00000
G1 F2100
G1 X212.702 Y52.101 E0.23022
G1 X211.948 Y52.101 E0.02365
G1 X211.948 Y59.274 E0.22490
G1 X211.194 Y59.274 E0.02365
G1 X211.194 Y51.931 E0.23022
G1 F5760
G1 X211.194 Y54.125 E-0.76000
G1 E-0.04000 F2100.00000
G1 X208.177 Y55.667 F7200.000
G1 E0.80000 F2100.00000
G1 F2100
G1 X208.177 Y54.672 E0.03118
G1 X207.423 Y53.366 E0.04729
G1 X207.423 Y56.634 E0.10246
G1 X206.669 Y57.916 E0.04663
G1 X206.669 Y52.084 E0.18283
G1 X205.915 Y52.084 E0.02365
G1 X205.915 Y57.916 E0.18283
G1 X205.161 Y57.916 E0.02365
G1 X205.161 Y52.084 E0.18283
G1 X204.407 Y52.084 E0.02365
G1 X204.407 Y57.916 E0.18283
G1 X203.653 Y57.916 E0.02365
G1 X203.653 Y52.084 E0.18283
G1 X203.317 Y52.084 E0.01053
G1 X202.898 Y52.809 E0.02623
G1 X202.898 Y57.191 E0.13739
G1 X202.144 Y55.885 E0.04729
G1 X202.144 Y53.776 E0.06612
G1 F5760
G1 X202.144 Y55.885 E-0.73039
G1 F5760
G1 X202.187 Y55.959 E-0.02961
G1 E-0.04000 F2100.00000
G1 Z0.200 F7200.000
G1 X202.879 Y151.326 F7200.000
G1 E0.80000 F2100.00000
G1 F840
G1 X207.121 Y151.326 E0.13302
G1 X209.242 Y155.000 E0.13302
G1 X207.121 Y158.674 E0.13302
G1 X202.879 Y158.674 E0.13302
G1 X200.758 Y155.000 E0.13302
G1 X202.849 Y151.378 E0.13114
G1 X202.879 Y150.926 F7200.000
G1 F5760
G1 X205.043 Y151.351 E-0.76000
G1 E-0.04000 F2100.00000
G1 X77.540 Y126.960 F7200.000
G1 E0.80000 F2100.00000
G1 F840
G1 X78.385 Y129.000 E0.06924
G1 X77.540 Y131.040 E0.06924
G1 X75.500 Y131.885 E0.06924
G1 X73.460 Y131.040 E0.06924
G1 X72.615 Y129.000 E0.06924
G1 X73.460 Y126.960 E0.06925
G1 X75.500 Y126.115 E0.06924
G1 X77.485 Y126.937 E0.06736
G1 F5760
G1 X78.363 Y128.948 E-0.76000
G1 E-0.04000 F2100.00000
G1 X75.500 Y126.523 F7200.000
G1 E0.80000 F2100.00000
G1 F840
G1 X77.252 Y127.248 E0.05945
G1 X77.977 Y129.000 E0.05945
G1 X77.252 Y130.752 E0.05945
G1 X75.500 Y131.477 E0.05945
G1 X73.748 Y130.752 E0.05945
G1 X73.023 Y129.000 E0.05945
G1 X73.748 Y127.248 E0.05945
G1 X75.445 Y126.546 E0.05757
G1 X75.700 Y126.176 F7200.000
G1 F5760
G1 X77.252 Y127.248 E-0.67156
G1 F5760
G1 X77.349 Y127.484 E-0.08844
G1 E-0.04000 F2100.00000
G1 X77.540 Y113.040 F7200.000
G1 E0.80000 F2100.00000
G1 F840
G1 X75.500 Y113.885 E0.06924
G1 X73.460 Y113.040 E0.06924
G1 X72.615 Y111.000 E0.06924
G1 X73.460 Y108.960 E0.06924
G1 X75.500 Y108.115 E0.06924
G1 X77.540 Y108.960 E0.06924
G1 X78.385 Y111.000 E0.06924
G1 X77.563 Y112.985 E0.06736
G1 F5760
G1 X75.552 Y113.863 E-0.76000
G1 E-0.04000 F2100.00000
G1 X77.977 Y111.000 F7200.000
G1 E0.80000 F2100.00000
G1 F840
G1 X77.252 Y112.752 E0.05945
G1 X75.500 Y113.477 E0.05945
G1 X73.748 Y112.752 E0.05945
G1 X73.023 Y111.000 E0.05945
G1 X73.748 Y109.248 E0.05945
G1 X75.500 Y108.523 E0.05945
G1 X77.252 Y109.248 E0.05945
G1 X77.954 Y110.945 E0.05757
G1 X78.324 Y111.200 F7200.000
G1 F5760
G1 X77.252 Y112.752 E-0.67156
G1 F5760
G1 X77.016 Y112.849 E-0.08844
G1 E-0.04000 F2100.00000
G1 X77.540 Y101.040 F7200.000
G1 E0.80000 F2100.00000
G1 F840
G1 X75.500 Y101.885 E0.06924
G1 X73.460 Y101.040 E0.06924
G1 X72.615 Y99.000 E0.06924
G1 X73.460 Y96.960 E0.06924
G1 X75.500 Y96.115 E0.06924
G1 X77.540 Y96.960 E0.06924
G1 X78.385 Y99.000 E0.06924
G1 X77.563 Y100.985 E0.06736
G1 F5760
G1 X75.552 Y101.863 E-0.76000
G1 E-0.04000 F2100.00000
G1 X77.977 Y99.000 F7200.000
G1 E0.80000 F2100.00000
G1 F840
G1 X77.252 Y100.752 E0.05945
G1 X75.500 Y101.477 E0.05945
G1 X73.748 Y100.752 E0.05945
G1 X73.023 Y99.000 E0.05945
G1 X73.748 Y97.248 E0.05945
G1 X75.500 Y96.523 E0.05945
G1 X77.252 Y97.248 E0.05945
G1 X77.954 Y98.945 E0.05757
G1 X78.324 Y99.200 F7200.000
G1 F5760
G1 X77.252 Y100.752 E-0.67156
G1 F5760
G1 X77.016 Y100.849 E-0.08844
G1 E-0.04000 F2100.00000
G1 X79.413 Y80.413 F7200.000
G1 E0.80000 F2100.00000
G1 F1680
G1 X95.587 Y80.413 E0.50713
G1 X95.587 Y129.587 E1.54182
G1 X79.413 Y129.587 E0.50713
G1 X79.413 Y80.473 E1.53994
G1 X79.790 Y80.790 F7200.000
G1 F1260
G1 X95.210 Y80.790 E0.48348
G1 X95.210 Y129.210 E1.51818
G1 X79.790 Y129.210 E0.48348
G1 X79.790 Y80.850 E1.51629
G1 X79.749 Y80.392 F7200.000
G1 F5760
G1 X81.984 Y80.841 E-0.76000
G1 E-0.04000 F2100.00000
G1 X77.540 Y78.960 F7200.000
G1 E0.80000 F2100.00000
G1 F840
G1 X78.385 Y81.000 E0.06924
G1 X77.540 Y83.040 E0.06924
G1 X75.500 Y83.885 E0.06924
G1 X73.460 Y83.040 E0.06924
G1 X72.615 Y81.000 E0.06924
G1 X73.460 Y78.960 E0.06925
G1 X75.500 Y78.115 E0.06924
G1 X77.485 Y78.937 E0.06736
G1 F5760
G1 X78.363 Y80.948 E-0.76000
G1 E-0.04000 F2100.00000
G1 X75.500 Y78.523 F7200.000
G1 E0.80000 F2100.00000
G1 F840
G1 X77.252 Y79.248 E0.05945
G1 X77.977 Y81.000 E0.05945
G1 X77.252 Y82.752 E0.05945
G1 X75.500 Y83.477 E0.05945
G1 X73.748 Y82.752 E0.05945
G1 X73.023 Y81.000 E0.05945
G1 X73.748 Y79.248 E0.05945
G1 X75.445 Y78.546 E0.05757
G1 X75.700 Y78.176 F7200.000
G1 F5760
G1 X77.252 Y79.248 E-0.67156
G1 F5760
G1 X77.349 Y79.484 E-0.08844
G1 E-0.04000 F2100.00000
G1 X97.460 Y83.040 F7200.000
G1 E0.80000 F2100.00000
G1 F840
G1 X96.615 Y81.000 E0.06924
G1 X97.460 Y78.960 E0.06925
G1 X99.500 Y78.115 E0.06924
G1 X101.540 Y78.960 E0.06924
G1 X102.385 Y81.000 E0.06924
G1 X101.540 Y83.040 E0.06924
G1 X99.500 Y83.885 E0.06924
G1 X97.515 Y83.063 E0.06736
G1 F5760
G1 X96.637 Y81.052 E-0.76000
G1 E-0.04000 F2100.00000
G1 X99.500 Y83.477 F7200.000
G1 E0.80000 F2100.00000
G1 F840
G1 X97.748 Y82.752 E0.05945
G1 X97.023 Y81.000 E0.05945
G1 X97.748 Y79.248 E0.05945
G1 X99.500 Y78.523 E0.05945
G1 X101.252 Y79.248 E0.05945
G1 X101.977 Y81.000 E0.05945
G1 X101.252 Y82.752 E0.05945
G1 X99.555 Y83.454 E0.05757
G1 X99.300 Y83.824 F7200.000
G1 F5760
G1 X97.748 Y82.752 E-0.67156
G1 F5760
G1 X97.651 Y82.516 E-0.08844
G1 E-0.04000 F2100.00000
G1 X99.500 Y96.115 F7200.000
G1 E0.80000 F2100.00000
G1 F840
G1 X101.540 Y96.960 E0.06924
G1 X102.385 Y99.000 E0.06924
G1 X101.540 Y101.040 E0.06924
G1 X99.500 Y101.885 E0.06924
G1 X97.460 Y101.040 E0.06924
G1 X96.615 Y99.000 E0.06924
G1 X97.460 Y96.960 E0.06924
G1 X99.445 Y96.138 E0.06736
G1 X99.500 Y96.523 F7200.000
G1 F840
G1 X101.252 Y97.248 E0.05945
G1 X101.977 Y99.000 E0.05945
G1 X101.252 Y100.752 E0.05945
G1 X99.500 Y101.477 E0.05945
G1 X97.748 Y100.752 E0.05945
G1 X97.023 Y99.000 E0.05945
G1 X97.748 Y97.248 E0.05945
G1 X99.445 Y96.546 E0.05757
G1 X99.700 Y96.176 F7200.000
G1 F5760
G1 X101.252 Y97.248 E-0.67156
G1 F5760
G1 X101.349 Y97.484 E-0.08844
G1 E-0.04000 F2100.00000
G1 X99.500 Y108.115 F7200.000
G1 E0.80000 F2100.00000
G1 F840
G1 X101.540 Y108.960 E0.06924
G1 X102.385 Y111.000 E0.06924
G1 X101.540 Y113.040 E0.06924
G1 X99.500 Y113.885 E0.06924
G1 X97.460 Y113.040 E0.06924
G1 X96.615 Y111.000 E0.06924
G1 X97.460 Y108.960 E0.06924
G1 X99.445 Y108.138 E0.06736
G1 X99.500 Y108.523 F7200.000
G1 F840
G1 X101.252 Y109.248 E0.05945
G1 X101.977 Y111.000 E0.05945
G1 X101.252 Y112.752 E0.05945
G1 X99.500 Y113.477 E0.05945
G1 X97.748 Y112.752 E0.05945
G1 X97.023 Y111.000 E0.05945
G1 X97.748 Y109.248 E0.05945
G1 X99.445 Y108.546 E0.05757
G1 X99.700 Y108.176 F7200.000
G1 F5760
G1 X101.252 Y109.248 E-0.67156
G1 F5760
G1 X101.349 Y109.484 E-0.08844
G1 E-0.04000 F2100.00000
G1 X99.500 Y126.115 F7200.000
G1 E0.80000 F2100.00000
G1 F840
G1 X101.540 Y126.960 E0.06924
G1 X102.385 Y129.000 E0.06924
G1 X101.540 Y131.040 E0.06924
G1 X99.500 Y131.885 E0.06924
G1 X97.460 Y131.040 E0.06924
G1 X96.615 Y129.000 E0.06924
G1 X97.460 Y126.960 E0.06925
G1 X99.445 Y126.138 E0.06736
G1 X99.500 Y126.523 F7200.000
G1 F840
G1 X101.252 Y127.248 E0.05945
G1 X101.977 Y129.000 E0.05945
G1 X101.252 Y130.752 E0.05945
G1 X99.500 Y131.477 E0.05945
G1 X97.748 Y130.752 E0.05945
G1 X97.023 Y129.000 E0.05945
G1 X97.748 Y127.248 E0.05945
G1 X99.445 Y126.546 E0.05757
G1 X99.700 Y126.176 F7200.000
G1 F5760
G1 X101.252 Y127.248 E-0.67156
G1 F5760
G1 X101.349 Y127.484 E-0.08844
G1 E-0.04000 F2100.00000
G1 X126.786 Y110.397 F7200.000
G1 E0.80000 F2100.00000
G1 F840
G1 X129.214 Y110.397 E0.07612
G1 X129.404 Y110.727 E0.01192
G1 X130.428 Y112.500 E0.06421
G1 X129.214 Y114.603 E0.07612
G1 X126.786 Y114.603 E0.07612
G1 X125.572 Y112.500 E0.07613
G1 X126.756 Y110.449 E0.07424
G1 X127.004 Y110.774 F7200.000
G1 F840
G1 X128.996 Y110.774 E0.06247
G1 X129.077 Y110.915 E0.00509
G1 X129.992 Y112.500 E0.05738
G1 X128.996 Y114.226 E0.06247
G1 X127.004 Y114.226 E0.06247
G1 X126.008 Y112.500 E0.06247
G1 X126.974 Y110.826 E0.06059
G1 X127.004 Y110.374 F7200.000
G1 F5760
G1 X128.996 Y110.774 E-0.70072
G1 F5760
G1 X129.077 Y110.915 E-0.05625
G1 F5760
G1 X129.082 Y110.923 E-0.00302
G1 E-0.04000 F2100.00000
G1 X126.786 Y95.397 F7200.000
G1 E0.80000 F2100.00000
G1 F840
G1 X129.214 Y95.397 E0.07612
G1 X129.404 Y95.727 E0.01192
G1 X130.428 Y97.500 E0.06421
G1 X129.214 Y99.603 E0.07612
G1 X126.786 Y99.603 E0.07612
G1 X125.572 Y97.500 E0.07613
G1 X126.756 Y95.449 E0.07424
G1 X127.004 Y95.774 F7200.000
G1 F840
G1 X128.996 Y95.774 E0.06247
G1 X129.077 Y95.915 E0.00509
G1 X129.992 Y97.500 E0.05738
G1 X128.996 Y99.226 E0.06247
G1 X127.004 Y99.226 E0.06247
G1 X126.008 Y97.500 E0.06247
G1 X126.974 Y95.826 E0.06059
G1 X127.004 Y95.374 F7200.000
G1 F5760
G1 X128.996 Y95.774 E-0.70072
G1 F5760
G1 X129.077 Y95.915 E-0.05625
G1 F5760
G1 X129.082 Y95.923 E-0.00302
G1 E-0.04000 F2100.00000
G1 X148.460 Y101.040 F7200.000
G1 E0.80000 F2100.00000
G1 F840
G1 X147.615 Y99.000 E0.06924
G1 X148.460 Y96.960 E0.06924
G1 X150.500 Y96.115 E0.06924
G1 X152.540 Y96.960 E0.06924
G1 X153.385 Y99.000 E0.06924
G1 X152.540 Y101.040 E0.06924
G1 X150.500 Y101.885 E0.06924
G1 X148.515 Y101.063 E0.06736
G1 F5760
G1 X147.637 Y99.052 E-0.76000
G1 E-0.04000 F2100.00000
G1 X150.500 Y101.477 F7200.000
G1 E0.80000 F2100.00000
G1 F840
G1 X148.748 Y100.752 E0.05945
G1 X148.023 Y99.000 E0.05945
G1 X148.748 Y97.248 E0.05945
G1 X150.500 Y96.523 E0.05945
G1 X152.252 Y97.248 E0.05945
G1 X152.977 Y99.000 E0.05945
G1 X152.252 Y100.752 E0.05945
G1 X150.555 Y101.454 E0.05757
G1 X150.300 Y101.824 F7200.000
G1 F5760
G1 X148.748 Y100.752 E-0.67156
G1 F5760
G1 X148.651 Y100.516 E-0.08844
G1 E-0.04000 F2100.00000
G1 X150.500 Y108.115 F7200.000
G1 E0.80000 F2100.00000
G1 F840
G1 X152.540 Y108.960 E0.06924
G1 X153.385 Y111.000 E0.06924
G1 X152.540 Y113.040 E0.06924
G1 X150.500 Y113.885 E0.06924
G1 X148.460 Y113.040 E0.06924
G1 X147.615 Y111.000 E0.06924
G1 X148.460 Y108.960 E0.06924
G1 X150.445 Y108.138 E0.06736
G1 X150.500 Y108.523 F7200.000
G1 F840
G1 X152.252 Y109.248 E0.05945
G1 X152.977 Y111.000 E0.05945
G1 X152.252 Y112.752 E0.05945
G1 X150.500 Y113.477 E0.05945
G1 X148.748 Y112.752 E0.05945
G1 X148.023 Y111.000 E0.05945
G1 X148.748 Y109.248 E0.05945
G1 X150.445 Y108.546 E0.05757
G1 X150.700 Y108.176 F7200.000
G1 F5760
G1 X152.252 Y109.248 E-0.67156
G1 F5760
G1 X152.349 Y109.484 E-0.08843
G1 E-0.04000 F2100.00000
G1 X150.500 Y126.115 F7200.000
G1 E0.80000 F2100.00000
G1 F840
G1 X152.540 Y126.960 E0.06924
G1 X153.385 Y129.000 E0.06924
G1 X152.540 Y131.040 E0.06924
G1 X150.500 Y131.885 E0.06924
G1 X148.460 Y131.040 E0.06924
G1 X147.615 Y129.000 E0.06924
