; generated by Slic3r 1.33.8 on 2018-06-09 at 19:20:01

; external perimeters extrusion width = 0.60mm
; perimeters extrusion width = 0.67mm
; infill extrusion width = 0.67mm
; solid infill extrusion width = 0.67mm
; top infill extrusion width = 0.67mm

M107
M104 S220 ; set extruder temp
M140 S55 ; set bed temp
M190 S55 ; wait for bed temp
M109 S220 ; wait for extruder temp
G28 ; home all axes
G1 Z5 F5000 ; lift nozzle
G21 ; set units to millimeters
G90 ; use absolute coordinates
M83 ; use relative distances for extrusion
G1 Z0.500 F2400.000
G1 E-4.00000 F2100.00000
G1 X4.701 Y2.123 F2400.000
G1 E4.00000 F2100.00000
M204 S1000
G1 F2400
G1 X5.000 Y2.107 E0.05564
G1 X95.025 Y2.107 E16.70603
G1 X95.310 Y2.124 E0.05300
G1 X95.592 Y2.169 E0.05300
G1 X95.869 Y2.241 E0.05300
G1 X96.137 Y2.340 E0.05300
G1 X96.393 Y2.465 E0.05300
G1 X96.637 Y2.615 E0.05300
G1 X96.864 Y2.788 E0.05300
G1 X97.073 Y2.982 E0.05300
G1 X97.257 Y3.190 E0.05144
G1 X97.417 Y3.411 E0.05066
G1 X97.558 Y3.650 E0.05144
G1 X97.676 Y3.901 E0.05144
G1 X97.767 Y4.158 E0.05066
G1 X97.835 Y4.427 E0.05144
G1 X97.877 Y4.701 E0.05144
G1 X97.893 Y4.973 E0.05066
G1 X97.893 Y95.000 E16.70633
G1 X97.878 Y95.289 E0.05378
G1 X97.836 Y95.572 E0.05300
G1 X97.764 Y95.853 E0.05378
G1 X97.665 Y96.125 E0.05378
G1 X97.541 Y96.382 E0.05300
G1 X97.390 Y96.630 E0.05378
G1 X97.215 Y96.861 E0.05378
G1 X97.018 Y97.073 E0.05378
G1 X96.810 Y97.257 E0.05144
G1 X96.589 Y97.417 E0.05066
G1 X96.350 Y97.558 E0.05144
G1 X96.099 Y97.676 E0.05144
G1 X95.842 Y97.767 E0.05066
G1 X95.573 Y97.835 E0.05144
G1 X95.299 Y97.877 E0.05144
G1 X95.027 Y97.893 E0.05066
G1 X5.000 Y97.893 E16.70633
G1 X4.711 Y97.878 E0.05378
G1 X4.428 Y97.836 E0.05300
G1 X4.147 Y97.764 E0.05378
G1 X3.875 Y97.665 E0.05378
G1 X3.618 Y97.541 E0.05300
G1 X3.370 Y97.390 E0.05378
G1 X3.139 Y97.215 E0.05378
G1 X2.927 Y97.018 E0.05378
G1 X2.743 Y96.810 E0.05144
G1 X2.583 Y96.589 E0.05066
G1 X2.442 Y96.350 E0.05144
G1 X2.324 Y96.099 E0.05144
G1 X2.233 Y95.842 E0.05066
G1 X2.165 Y95.573 E0.05144
G1 X2.123 Y95.299 E0.05144
G1 X2.107 Y95.027 E0.05066
G1 X2.108 Y4.950 E16.71569
G1 X2.162 Y4.440 E0.09500
G1 X2.305 Y3.949 E0.09500
G1 X2.533 Y3.490 E0.09500
G1 X2.837 Y3.079 E0.09500
G1 X3.210 Y2.728 E0.09500
G1 X3.638 Y2.448 E0.09500
G1 X4.110 Y2.248 E0.09500
G1 X4.611 Y2.134 E0.09546
G1 E-4.00000 F2100.00000
G1 X7.000 Y7.000 F2400.000
G1 E4.00000 F2100.00000
G1 F2400
G1 X93.000 Y7.000 E15.95907
G1 X93.000 Y93.000 E15.95907
G1 X7.000 Y93.000 E15.95907
G1 X7.000 Y7.090 E15.94237
G1 X6.845 Y6.420 F2400.000
G1 E-4.00000 F2100.00000
G1 X5.500 Y5.500 F2400.000
G1 E4.00000 F2100.00000
G1 F2400
G1 X94.500 Y5.500 E16.51578
G1 X94.500 Y94.500 E16.51578
G1 X5.500 Y94.500 E16.51578
G1 X5.500 Y5.590 E16.49908
G1 X6.080 Y5.655 F2400.000
G1 E-4.00000 F2100.00000
G1 X6.302 Y6.302 F2400.000
G1 E4.00000 F2100.00000
G1 F2400
G1 X6.386 Y6.285 E0.01075
G1 F2400
G1 X6.554 Y6.250 E0.01904
G1 X93.446 Y6.250 E9.65882
G1 X93.530 Y6.267 E0.00952
G1 F2400
G1 X93.698 Y6.302 E0.02151
G1 X93.715 Y6.386 E0.01075
G1 F2400
G1 X93.750 Y6.554 E0.01904
G1 X93.750 Y93.446 E9.65879
G1 X93.733 Y93.530 E0.00952
G1 F2400
G1 X93.698 Y93.698 E0.02151
G1 X93.614 Y93.715 E0.01076
G1 F2400
G1 X93.446 Y93.750 E0.01904
G1 X6.554 Y93.750 E9.65879
G1 X6.470 Y93.733 E0.00952
G1 F2400
G1 X6.302 Y93.698 E0.02151
G1 X6.285 Y93.614 E0.01076
G1 F2400
G1 X6.250 Y93.446 E0.01904
G1 X6.250 Y6.554 E9.65882
G1 X6.267 Y6.470 E0.00952
G1 F2400
G1 X6.284 Y6.390 E0.01021
G1 Z1.000 F2400.000
G1 X6.671 Y6.671 F2400.000
M204 S800
G1 F2400
G1 X93.329 Y6.671 E10.18676
G1 X93.329 Y93.329 E10.18676
G1 X6.671 Y93.329 E10.18676
G1 X6.671 Y6.761 E10.17618
M204 S1000
G1 X7.200 Y7.200 F2400.000
M204 S800
G1 F2400
G1 X92.800 Y7.200 E8.76717
G1 X92.800 Y92.800 E8.76717
G1 X7.200 Y92.800 E8.76717
G1 X7.200 Y7.290 E8.75795
M204 S1000
G1 X7.045 Y6.620 F2400.000
G1 E-4.00000 F2100.00000
G1 X5.829 Y5.829 F2400.000
G1 E4.00000 F2100.00000
M204 S800
G1 F2400
G1 X94.171 Y5.829 E10.38467
G1 X94.171 Y94.171 E10.38467
G1 X5.829 Y94.171 E10.38467
G1 X5.829 Y5.919 E10.37409
M204 S1000
G1 X5.300 Y5.300 F2400.000
M204 S800
G1 F2400
G1 X94.700 Y5.300 E9.15637
G1 X94.700 Y94.700 E9.15637
G1 X5.300 Y94.700 E9.15637
G1 X5.300 Y5.390 E9.14715
M204 S1000
G1 X5.880 Y5.455 F2400.000
G1 E-4.00000 F2100.00000
G1 X6.274 Y6.274 F2400.000
G1 E4.00000 F2100.00000
G1 F2400
G1 X6.388 Y6.250 E0.00526
G1 X93.612 Y6.250 E3.92444
G1 X93.726 Y6.274 E0.00526
G1 X93.750 Y6.388 E0.00526
G1 X93.750 Y93.612 E3.92444
G1 X93.726 Y93.726 E0.00526
G1 X93.612 Y93.750 E0.00526
G1 X6.388 Y93.750 E3.92444
G1 X6.274 Y93.726 E0.00526
G1 X6.250 Y93.612 E0.00526
G1 X6.255 Y6.362 E3.92562
G1 E-4.00000 F2100.00000
M104 S0 ; turn off temperature
M140 S0; turn off bed temp
G28 X0  ; home X axis
G28 Y0  ; home Y axis
M84     ; disable motors
; filament used = 408.6mm (1.0cm3)
; filament used = 1.2g
; filament cost = 0.0
; total filament cost = 0.0

; avoid_crossing_perimeters = 0
; bed_shape = 0x0,100x0,100x100,0x100
; bed_temperature = 55
; before_layer_gcode = 
; bridge_acceleration = 1000
; bridge_fan_speed = 100
; brim_width = 0
; complete_objects = 0
; cooling = 1
; default_acceleration = 1000
; disable_fan_first_layers = 2
; duplicate_distance = 6
; end_gcode = M104 S0 ; turn off temperature\nM140 S0; turn off bed temp\nG28 X0  ; home X axis\nG28 Y0  ; home Y axis\nM84     ; disable motors
; extruder_clearance_height = 20
; extruder_clearance_radius = 20
; extruder_offset = 0x0
; extrusion_axis = E
; extrusion_multiplier = 1
; fan_always_on = 1
; fan_below_layer_time = 50
; filament_colour = #FF14E2
; filament_cost = 14
; filament_density = 1.25
; filament_diameter = 1.75
; filament_max_volumetric_speed = 20
; filament_notes = ""
; first_layer_acceleration = 1000
; first_layer_bed_temperature = 55
; first_layer_extrusion_width = 200%
; first_layer_speed = 40
; first_layer_temperature = 220
; gcode_arcs = 0
; gcode_comments = 0
; gcode_flavor = reprap
; infill_acceleration = 2000
; infill_first = 0
; layer_gcode = 
; max_fan_speed = 100
; max_layer_height = 0
; max_print_speed = 100
; max_volumetric_extrusion_rate_slope_negative = 0
; max_volumetric_extrusion_rate_slope_positive = 0
; max_volumetric_speed = 0
; min_fan_speed = 0
; min_layer_height = 0.07
; min_print_speed = 15
; min_skirt_length = 30
; notes = 
; nozzle_diameter = 0.6
; only_retract_when_crossing_perimeters = 0
; ooze_prevention = 0
; output_filename_format = [input_filename_base].gcode
; perimeter_acceleration = 800
; post_process = 
; pressure_advance = 0
; resolution = 0
; retract_before_travel = 1
; retract_layer_change = 0
; retract_length = 4
; retract_length_toolchange = 3
; retract_lift = 0
; retract_lift_above = 0
; retract_lift_below = 0
; retract_restart_extra = 0
; retract_restart_extra_toolchange = 0
; retract_speed = 35
; skirt_distance = 2
; skirt_height = 1
; skirts = 1
; slowdown_below_layer_time = 25
; spiral_vase = 0
; standby_temperature_delta = -5
; start_gcode = M104 S[first_layer_temperature] ; set extruder temp\nM140 S[first_layer_bed_temperature] ; set bed temp\nM190 S[first_layer_bed_temperature] ; wait for bed temp\nM109 S[first_layer_temperature] ; wait for extruder temp\nG28 ; home all axes\nG1 Z5 F5000 ; lift nozzle
; temperature = 220
; threads = 4
; toolchange_gcode = 
; travel_speed = 40
; use_firmware_retraction = 0
; use_relative_e_distances = 1
; use_volumetric_e = 0
; variable_layer_height = 1
; wipe = 0
; z_offset = 0
; clip_multipart_objects = 0
; dont_support_bridges = 1
; extrusion_width = 0
; first_layer_height = 0.5
; infill_only_where_needed = 0
; interface_shells = 0
; layer_height = 0.5
; raft_layers = 0
; seam_position = nearest
; support_material = 0
; support_material_angle = 0
; support_material_buildplate_only = 0
; support_material_contact_distance = 0.15
; support_material_enforce_layers = 0
; support_material_extruder = 1
; support_material_extrusion_width = 0.35
; support_material_interface_contact_loops = 0
; support_material_interface_extruder = 1
; support_material_interface_layers = 2
; support_material_interface_spacing = 0.2
; support_material_interface_speed = 100%
; support_material_pattern = rectilinear
; support_material_spacing = 2
; support_material_speed = 40
; support_material_synchronize_layers = 0
; support_material_threshold = 35
; support_material_with_sheath = 1
; support_material_xy_spacing = 50%
; xy_size_compensation = 0
; bottom_solid_layers = 3
; bridge_flow_ratio = 0.95
; bridge_speed = 20
; ensure_vertical_shell_thickness = 0
; external_fill_pattern = rectilinear
; external_perimeter_extrusion_width = 0
; external_perimeter_speed = 100%
; external_perimeters_first = 0
; extra_perimeters = 0
; fill_angle = 45
; fill_density = 20%
; fill_pattern = rectilinear
; gap_fill_speed = 40
; infill_every_layers = 1
; infill_extruder = 1
; infill_extrusion_width = 0
; infill_overlap = 25%
; infill_speed = 40
; overhangs = 0
; perimeter_extruder = 1
; perimeter_extrusion_width = 0
; perimeter_speed = 40
; perimeters = 3
; small_perimeter_speed = 100%
; solid_infill_below_area = 0
; solid_infill_every_layers = 0
; solid_infill_extruder = 1
; solid_infill_extrusion_width = 0
; solid_infill_speed = 100%
; thin_walls = 0
; top_infill_extrusion_width = 0
; top_solid_infill_speed = 100%
; top_solid_layers = 4
